X:1
T:Jesus, I Will Trust Thee
T:Jesus, I Will Trust Thee
T: Ira David Sankey, 1881
T:Mary Jane Deck Walker, 1855
T:Public Domain Courtesy of the Cyber Hymnal™
T:Public Domain Courtesy of the Cyber Hymnal™
C:Ira David Sankey, 1881
Z:Public Domain
Z:Courtesy of the Cyber Hymnal™
%%score ( 1 2 ) 3
L:1/8
M:4/4
K:Ab
V:1 treble 
V:2 treble 
V:3 bass 
V:1
 [Ec]2 [Fd]2 [Ec]2 [DB]2 | [CA]4 [CE]4 | [CA]2 [DG]2 [EA]2 [Ec]2 | [EB]6 z2 | %4
w: 1.~Je- sus, I will|trust Thee,|trust Thee with my|soul;|
w: 2.~Je- sus, I can|trust Thee,|trust Thy writ- ten|Word,|
w: 3.~Je- sus, I do|trust Thee,|trust Thee with- out|doubt;|
 [EG]2 [FA]2 [GB]2 [Ac]2 | [GB]4 E4 | [EG]2 [FA]2 [EG]2 [=DF]2 | E6 z2 | [Ec]2 [Fd]2 [Ec]2 [DB]2 | %9
w: Guilt- y, lost, and|help- less,|Thou canst make me|whole.|There is none in|
w: Since Thy voice of|mer- cy|I have oft- en|heard,|When Thy Spir- it|
w: “Who- so- ev- er|com- eth,|Thou wilt not cast|out,”|Faith- ful is Thy|
 [CA]4 [CE]4 | [CA]2 [DG]2 [EA]2 [Ec]2 | [EB]6 z2 | [Fd]2 [Fc]2 [FB]2 [FA]2 | %13
w: Hea- ven|or on earth like|Thee:|Thou hast died for|
w: teach- eth,|to my taste how|sweet—|On- ly may I|
w: prom- ise,|pre- cious is Thy|blood—|These my soul’s sal-|
 [EG]2 [B,E]2 [EA]2 [FB]2 | [Ec]4 [DB]4 | [CA]6 z2 ||"^Refrain" [GB]2 [GB]2 [GB]2 [Ac]2 | %17
w: sin- ners— there- fore|Lord for|me.||
w: heark- en, sit- ting|at Thy|feet.|In Thy love con-|
w: va- tion, Thou my|Sav- ior|God!||
 [GB]4 [Ge]4 | [B=d]2 [Ac]2 [GB]2 [FA]2 | [EG]6 z2 | [GB]2 [GB]2 [GB]2 [Ac]2 | [GB]4 [Ge]4 | %22
w: |||||
w: fid- ing|I will seek Thy|face,|Wor- ship and a-|dore Thee,|
w: |||||
 [EB]2 [FA]2 [EG]2 [=DF]2 | E6 z2 [Ec]2 [Fd]2 [Ec]2 [DB]2 | [CA]4 [CE]4 | [CA]2 [DG]2 [EA]2 [Ec]2 | %26
w: ||||
w: for Thy won- drous|grace. Je- sus, I will|trust Thee,|trust Thee with my|
w: ||||
 [EB]6 z2 | [Fd]2 [Fc]2 [FB]2 [FA]2 | [EG]2 [B,E]2 [EA]2 [FB]2 | [Ec]4 [DB]4 | [CA]6 z2 |] %31
w: |||||
w: soul;|Guilt- y, lost and|help- less, Thou canst|make me|whole.|
w: |||||
V:2
 x8 | x8 | x8 | x8 | x8 | x4 E4 | x8 | E6 x2 | x8 | x8 | x8 | x8 | x8 | x8 | x8 | x8 || x8 | x8 | %18
 x8 | x8 | x8 | x8 | x8 | E6 x10 | x8 | x8 | x8 | x8 | x8 | x8 | x8 |] %31
V:3
 [A,,A,]2 [A,,A,]2 [A,,A,]2 [A,,E,]2 | [A,,E,]4 [A,,A,]4 | [A,,E,]2 [B,,E,]2 [C,A,]2 [A,,A,]2 | %3
 [E,G,]6 z2 | [E,B,]2 [E,B,]2 [E,E]2 [E,E]2 | [E,E]4 [E,G,]4 | [E,B,]2 [A,,C]2 [B,,B,]2 [B,,A,]2 | %7
 [E,G,]6 z2 | [A,,A,]2 [A,,A,]2 [A,,A,]2 [A,,E,]2 | [A,,E,]4 [A,,A,]4 | %10
 [A,,E,]2 [B,,E,]2 [C,A,]2 [A,,A,]2 | [E,G,]6 z2 | [B,,B,]2 [C,=A,]2 [D,B,]2 [=D,B,]2 | %13
 [E,B,]2 [D,G,]2 [C,A,]2 [D,A,]2 | [E,A,]4 [E,G,]4 | [A,,A,]6 z2 || [E,E]2 [E,E]2 [E,E]2 [E,E]2 | %17
 [E,E]4 [E,B,]4 | [B,,B,]2 [B,,B,]2 [B,,B,]2 [B,,B,]2 | [E,B,]6 z2 | [E,E]2 [E,E]2 [E,E]2 [E,E]2 | %21
 [E,E]4 [E,B,]4 | [G,,B,]2 [A,,C]2 [B,,B,]2 [B,,A,]2 | %23
 [E,G,]6 z2 [A,,A,]2 [A,,A,]2 [A,,A,]2 [A,,E,]2 | [A,,E,]4 [A,,A,]4 | %25
 [A,,E,]2 [B,,E,]2 [C,A,]2 [A,,A,]2 | [E,G,]6 z2 | [B,,B,]2 [C,=A,]2 [D,B,]2 [=D,B,]2 | %28
 [E,B,]2 [D,G,]2 [C,A,]2 [D,A,]2 | [E,A,]4 [E,G,]4 | [A,,A,]6 z2 |] %31

